X: 8068
T: Connolly's
R: barndance
M: 4/4
K: Gmajor
V:1
"G"DB,DG "Em"B2 G2|"A"A^GAB E3 =G|"D"F2 A,B, C3 D|"C"EDDE "G"D2 [B,2D2]|
"G"DB,DG "Em"B2 G2|"A"A^GAB E3 =G|"D"F2 A,B, CDEF||1 "G"G2 "D"F2 "G"G2 B,C:|2 "G"G2 "D"F2 "G"G2 dc||
|:"G"BGDG "E7"B2 B2|"A"A^GA^c e2 eg|"D"fecA F3 G|"C"(3ABA (3GFE "G"D2 d2|
"G"BGDG "E7"B2 B2|"A"A^GA^c e2 eg|"D"fecA F3 G|"C"(3ABA "D"GF "G"[B,4G4]:|
V:2
G2 F2 E2 D2|^C2 E2 A,2 E2|C2 F2 A2 c2|c2 B2 B2 G2|
G2 F2 E2 D2|^C2 E2 A,2 E2|D2 F2 A2 C2||B,2 DC B,2 F2:|B,2 D2 B,2 z2||
|:G2 F2 E^GBd|^c=c^ce g2 c2|dcAF D2 d2|c2 B2 B2 BA|
G2 F2 E^GBd|^c=c^ce g2 c2|d2 AF D2 CB,|C2 B,A, [G,4D4]:|

